logos/wordpress.svg

<?xml version="1.0" encoding="UTF-8" standalone="no"?>
<svg width="512px" height="117px" viewBox="0 0 512 117" version="1.1" xmlns="http://www.w3.org/2000/svg" xmlns:xlink="http://www.w3.org/1999/xlink" preserveAspectRatio="xMidYMid">
	<g>
		<path d="M296.949504,45.7261845 L276.794787,45.7261845 L276.794787,47.8642513 C283.099003,47.8642513 284.11257,49.2153577 284.11257,57.2101157 L284.11257,71.6228664 C284.11257,79.6166761 283.099951,81.0806119 276.794787,81.0806119 C271.954508,80.4055327 268.688149,77.8152008 264.184461,72.8611437 L259.005693,67.2320074 C265.985936,65.9918338 269.700768,61.6019228 269.700768,56.6469176 C269.700768,50.4555313 264.410119,45.7261845 254.501057,45.7261845 L234.684828,45.7261845 L234.684828,47.8642513 C240.989043,47.8642513 242.002611,49.2153577 242.002611,57.2101157 L242.002611,71.6228664 C242.002611,79.6166761 240.989043,81.0806119 234.684828,81.0806119 L234.684828,83.2196268 L257.09044,83.2196268 L257.09044,81.0806119 C250.786225,81.0806119 249.772657,79.6166761 249.772657,71.6228664 L249.772657,67.5704951 L251.686015,67.5704951 L264.184461,83.2196268 L296.949504,83.2196268 C313.049952,83.2196268 320.031143,74.6635671 320.031143,64.4160169 C320.031143,54.1703631 313.050901,45.7261845 296.949504,45.7261845 L296.949504,45.7261845 L296.949504,45.7261845 Z M249.773606,64.0775292 L249.773606,49.1044248 L254.389175,49.1044248 C259.455114,49.1044248 261.707905,52.5945462 261.707905,56.6478657 C261.707905,60.5893041 259.455114,64.0784773 254.389175,64.0784773 L249.773606,64.0784773 L249.773606,64.0775292 L249.773606,64.0775292 Z M297.287992,79.7295054 L296.499135,79.7295054 C292.446763,79.7295054 291.883565,78.7168866 291.883565,73.537171 L291.883565,49.1044248 L297.287992,49.1044248 C308.997581,49.1044248 311.135648,57.6604845 311.135648,64.3041358 C311.135648,71.1715494 308.996634,79.7295054 297.287992,79.7295054 L297.287992,79.7295054 L297.287992,79.7295054 Z M171.972627,68.2455742 L179.741726,45.2748675 C181.994519,38.6321643 180.980952,36.7188079 173.775051,36.7188079 L173.775051,34.4660156 L194.942386,34.4660156 L194.942386,36.7188079 C187.849313,36.7188079 186.160667,38.4074539 183.345625,46.6269222 L170.508691,85.1339313 L169.045704,85.1339313 L157.559876,49.8913851 L145.851235,85.1339313 L144.3873,85.1339313 L131.889801,46.6269222 C129.187588,38.4074539 127.386113,36.7188079 120.85529,36.7188079 L120.85529,34.4660156 L145.851235,34.4660156 L145.851235,36.7188079 C139.207584,36.7188079 137.40516,38.2946247 139.770782,45.2748675 L147.314222,68.2455742 L158.686272,34.4660156 L160.826236,34.4660156 L171.972627,68.2455742 L171.972627,68.2455742 Z M210.25303,84.6826144 C197.868361,84.6826144 187.734588,75.5633567 187.734588,64.4150688 C187.734588,53.3815065 197.869309,44.2603525 210.25303,44.2603525 C222.638647,44.2603525 232.771472,53.3815065 232.771472,64.4150688 C232.771472,75.5633567 222.638647,84.6826144 210.25303,84.6826144 L210.25303,84.6826144 L210.25303,84.6826144 Z M210.25303,47.7533183 C199.895494,47.7533183 196.291596,57.0972864 196.291596,64.4160169 C196.291596,71.8485249 199.895494,81.0806119 210.25303,81.0806119 C220.725291,81.0806119 224.328241,71.8485249 224.328241,64.4160169 C224.328241,57.0972864 220.725291,47.7533183 210.25303,47.7533183 L210.25303,47.7533183 L210.25303,47.7533183 Z" fill="#00749A"></path>
		<path d="M347.840233,80.9677826 L347.840233,83.2196268 L322.056381,83.2196268 L322.056381,80.9677826 C329.60077,80.9677826 330.951876,79.0544262 330.951876,67.7933091 L330.951876,49.779504 C330.951876,38.5183869 329.60077,36.7178597 322.056381,36.7178597 L322.056381,34.4650675 L345.362731,34.4650675 C356.959492,34.4650675 363.37938,40.4326915 363.37938,48.4283975 C363.37938,56.1974969 356.959492,62.277002 345.362731,62.277002 L338.944738,62.277002 L338.944738,67.792361 C338.944738,79.0544262 340.295844,80.9677826 347.840233,80.9677826 L347.840233,80.9677826 L347.840233,80.9677826 Z M345.362731,38.5183869 L338.944738,38.5183869 L338.944738,58.1108533 L345.362731,58.1108533 C351.668843,58.1108533 354.595766,53.7199942 354.595766,48.4283975 C354.595766,43.0239715 351.668843,38.5183869 345.362731,38.5183869 L345.362731,38.5183869 L345.362731,38.5183869 Z M440.729043,72.6364333 L440.165845,74.662619 C439.153226,78.3783989 437.913052,79.7295054 429.919242,79.7295054 L428.342477,79.7295054 C422.488631,79.7295054 421.475063,78.3783989 421.475063,70.3845892 L421.475063,65.2058217 C430.25773,65.2058217 430.933757,65.9927819 430.933757,71.8485249 L433.072772,71.8485249 L433.072772,55.0711007 L430.933757,55.0711007 C430.933757,60.9258955 430.25773,61.713804 421.475063,61.713804 L421.475063,49.1044248 L427.66645,49.1044248 C435.662156,49.1044248 436.899485,50.4555313 437.913052,54.1713112 L438.477198,56.309378 L440.277725,56.309378 L439.490765,45.7261845 L406.387234,45.7261845 L406.387234,47.8642513 C412.691449,47.8642513 413.705964,49.2153577 413.705964,57.2101157 L413.705964,71.6228664 C413.705964,78.935908 412.845048,80.7781537 407.873925,81.0407898 C403.149319,80.3192515 399.905715,77.7421936 395.467449,72.8611437 L390.287733,67.2320074 C397.268924,65.9918338 400.984704,61.6019228 400.984704,56.6469176 C400.984704,50.4555313 395.693107,45.7261845 385.784993,45.7261845 L365.968765,45.7261845 L365.968765,47.8642513 C372.27298,47.8642513 373.286546,49.2153577 373.286546,57.2101157 L373.286546,71.6228664 C373.286546,79.6166761 372.273929,81.0806119 365.968765,81.0806119 L365.968765,83.2196268 L388.375325,83.2196268 L388.375325,81.0806119 C382.071109,81.0806119 381.056594,79.6166761 381.056594,71.6228664 L381.056594,67.5704951 L382.970899,67.5704951 L395.468397,83.2196268 L441.743557,83.2196268 L442.419584,72.6373814 L440.729043,72.6373814 L440.729043,72.6364333 L440.729043,72.6364333 Z M381.055646,64.0775292 L381.055646,49.1044248 L385.671215,49.1044248 C390.738102,49.1044248 392.990895,52.5945462 392.990895,56.6478657 C392.990895,60.5893041 390.738102,64.0784773 385.671215,64.0784773 L381.055646,64.0784773 L381.055646,64.0775292 L381.055646,64.0775292 Z M463.585023,84.6826144 C459.081335,84.6826144 455.139897,82.3188891 453.451251,80.8540052 C452.888053,81.4181515 451.875434,83.1067975 451.650723,84.6826144 L449.510761,84.6826144 L449.510761,69.1463119 L451.762605,69.1463119 C452.664291,76.5769236 457.84211,80.9677826 464.485761,80.9677826 C468.088712,80.9677826 471.016583,78.9415969 471.016583,75.5643048 C471.016583,72.6373814 468.4272,70.3845892 463.810682,68.2455742 L457.392689,65.2058217 C452.888053,63.0649104 449.510761,59.3491306 449.510761,54.3960215 C449.510761,48.9915956 454.577647,44.3760261 461.558838,44.3760261 C465.274617,44.3760261 468.426251,45.7271326 470.341504,47.3029495 C470.903754,46.8525807 471.466952,45.6133553 471.80544,44.2613006 L473.944455,44.2613006 L473.944455,57.5486034 L471.579781,57.5486034 C470.790925,52.2560585 467.864002,47.8651995 461.897326,47.8651995 C458.744744,47.8651995 455.815924,49.6666748 455.815924,52.4826651 C455.815924,55.4095884 458.180598,56.9854053 463.585971,59.4629079 L469.777358,62.5026605 C475.182732,65.0920442 477.320798,69.2600892 477.320798,72.6373814 C477.320798,79.7295054 471.128465,84.6826144 463.585023,84.6826144 L463.585023,84.6826144 L463.585023,84.6826144 Z M498.263424,84.6826144 C493.758787,84.6826144 489.817349,82.3188891 488.12965,80.8540052 C487.566452,81.4181515 486.553834,83.1067975 486.329124,84.6826144 L484.18916,84.6826144 L484.18916,69.1463119 L486.441004,69.1463119 C487.341743,76.5769236 492.520509,80.9677826 499.164161,80.9677826 C502.767112,80.9677826 505.694984,78.9415969 505.694984,75.5643048 C505.694984,72.6373814 503.105599,70.3845892 498.488134,68.2455742 L492.070141,65.2058217 C487.566452,63.0649104 484.188212,59.3491306 484.188212,54.3960215 C484.188212,48.9915956 489.255099,44.3760261 496.23629,44.3760261 C499.952069,44.3760261 503.103703,45.7271326 505.018956,47.3029495 C505.581206,46.8525807 506.144404,45.6133553 506.480995,44.2613006 L508.620959,44.2613006 L508.620959,57.5486034 L506.257233,57.5486034 C505.468376,52.2560585 502.541454,47.8651995 496.574778,47.8651995 C493.422195,47.8651995 490.493376,49.6666748 490.493376,52.4826651 C490.493376,55.4095884 492.85805,56.9854053 498.263424,59.4629079 L504.45481,62.5026605 C509.860184,65.0920442 511.998251,69.2600892 511.998251,72.6373814 C511.998251,79.7295054 505.805917,84.6826144 498.263424,84.6826144 L498.263424,84.6826144 L498.263424,84.6826144 Z" fill="#464342"></path>
		<g fill="#464342">
			<path d="M8.25644587,58.0833571 C8.25644587,77.8066675 19.7185697,94.8514688 36.3395499,102.928715 L12.5705052,37.8044338 C9.80571461,44.0015089 8.25644587,50.859441 8.25644587,58.0833571 L8.25644587,58.0833571 L8.25644587,58.0833571 Z M91.7235384,55.5688768 C91.7235384,49.4106756 89.5115164,45.1459199 87.6142785,41.8264645 C85.0884204,37.7219452 82.7209025,34.2460459 82.7209025,30.1415266 C82.7209025,25.5610386 86.1949055,21.297231 91.0882814,21.297231 C91.3091991,21.297231 91.5187392,21.3247272 91.733968,21.337053 C82.8688132,13.2152437 71.0577721,8.25644587 58.0852534,8.25644587 C40.6773129,8.25644587 25.3619281,17.1879709 16.4522105,30.7161025 C17.6212731,30.7511838 18.7230175,30.7758356 19.6588365,30.7758356 C24.8707891,30.7758356 32.9385541,30.1434229 32.9385541,30.1434229 C35.6246486,29.9850828 35.9413291,33.9303137 33.2580789,34.2479422 C33.2580789,34.2479422 30.5587104,34.5655708 27.5549874,34.7229628 L45.7005846,88.6961118 L56.6051992,55.9917494 L48.8417886,34.7210665 C46.1585386,34.5636745 43.6165621,34.2460459 43.6165621,34.2460459 C40.9314157,34.0886539 41.2461998,29.9831865 43.9313462,30.1415266 C43.9313462,30.1415266 52.1602959,30.7739393 57.0565162,30.7739393 C62.2675206,30.7739393 70.3362338,30.1415266 70.3362338,30.1415266 C73.0242245,29.9831865 73.3399568,33.9284174 70.6557585,34.2460459 C70.6557585,34.2460459 67.9507012,34.5636745 64.952667,34.7210665 L82.9598351,88.285565 L87.9300106,71.6769106 C90.0841959,64.7848453 91.7235384,59.8345807 91.7235384,55.5688768 L91.7235384,55.5688768 L91.7235384,55.5688768 Z M58.959443,62.4419793 L44.009094,105.885031 C48.4729603,107.197263 53.1937738,107.915009 58.0852534,107.915009 C63.8879002,107.915009 69.4525627,106.911872 74.6322783,105.090485 C74.4985899,104.877152 74.3772273,104.650546 74.2776721,104.404028 L58.959443,62.4419793 L58.959443,62.4419793 Z M101.808008,34.1768314 C102.022289,35.7640259 102.143651,37.4678423 102.143651,39.3006065 C102.143651,44.3570632 101.199299,50.041192 98.3548637,57.1484862 L83.1342938,101.154736 C97.9481099,92.5161876 107.912165,76.4669387 107.912165,58.0843052 C107.913113,49.4211052 105.700142,41.2746441 101.808008,34.1768314 L101.808008,34.1768314 L101.808008,34.1768314 Z M58.0852534,0 C26.0578665,0 0,26.0559702 0,58.0833571 C0,90.1145366 26.0578665,116.169559 58.0852534,116.169559 C90.1116921,116.169559 116.173352,90.1145366 116.173352,58.0833571 C116.172403,26.0559702 90.1116921,0 58.0852534,0 L58.0852534,0 L58.0852534,0 Z M58.0852534,113.507167 C27.526543,113.507167 2.66333905,88.6439638 2.66333905,58.0833571 C2.66333905,27.5246467 27.5255949,2.66333905 58.0852534,2.66333905 C88.6430157,2.66333905 113.504323,27.5246467 113.504323,58.0833571 C113.504323,88.6439638 88.6430157,113.507167 58.0852534,113.507167 L58.0852534,113.507167 L58.0852534,113.507167 Z"></path>
		</g>
	</g>
</svg>

<svg preserveAspectRatio="xMidYMid" viewBox="0 0 512 117" xmlns="http://www.w3.org/2000/svg">
  <path fill="#00749A" d="M296.95 45.726h-20.155v2.138c6.304 0 7.318 1.351 7.318 9.346v14.413c0 7.994-1.013 9.458-7.318 9.458-4.84-.675-8.107-3.266-12.61-8.22l-5.18-5.629c6.98-1.24 10.696-5.63 10.696-10.585 0-6.191-5.29-10.92-15.2-10.92h-19.816v2.137c6.304 0 7.318 1.351 7.318 9.346v14.413c0 7.994-1.014 9.458-7.318 9.458v2.139h22.405v-2.14c-6.304 0-7.317-1.463-7.317-9.457V67.57h1.913l12.498 15.65h32.766c16.1 0 23.081-8.556 23.081-18.804 0-10.246-6.98-18.69-23.081-18.69Zm-47.176 18.352V49.104h4.615c5.066 0 7.319 3.49 7.319 7.544 0 3.941-2.253 7.43-7.319 7.43h-4.615Zm47.514 15.652h-.789c-4.052 0-4.615-1.013-4.615-6.193V49.104h5.404c11.71 0 13.848 8.556 13.848 15.2 0 6.868-2.14 15.426-13.848 15.426ZM171.973 68.246l7.769-22.971c2.253-6.643 1.239-8.556-5.967-8.556v-2.253h21.167v2.253c-7.093 0-8.781 1.688-11.596 9.908l-12.837 38.507h-1.463L157.56 49.89l-11.71 35.244h-1.464L131.89 46.627c-2.702-8.22-4.504-9.908-11.035-9.908v-2.253h24.996v2.253c-6.643 0-8.446 1.576-6.08 8.556l7.543 22.97 11.372-33.779h2.14l11.147 33.78Zm38.28 16.437c-12.385 0-22.518-9.12-22.518-20.268 0-11.033 10.134-20.155 22.518-20.155 12.386 0 22.518 9.122 22.518 20.155 0 11.148-10.132 20.268-22.518 20.268Zm0-36.93c-10.358 0-13.961 9.344-13.961 16.663 0 7.433 3.603 16.665 13.961 16.665 10.472 0 14.075-9.232 14.075-16.665 0-7.319-3.603-16.663-14.075-16.663Z"/>
  <path fill="#464342" d="M347.84 80.968v2.252h-25.784v-2.252c7.545 0 8.896-1.914 8.896-13.175V49.78c0-11.262-1.351-13.062-8.896-13.062v-2.253h23.307c11.596 0 18.016 5.968 18.016 13.963 0 7.77-6.42 13.849-18.016 13.849h-6.418v5.515c0 11.262 1.35 13.176 8.895 13.176Zm-2.477-42.45h-6.418v19.593h6.418c6.306 0 9.233-4.391 9.233-9.683 0-5.404-2.927-9.91-9.233-9.91Zm95.366 34.118-.563 2.027c-1.013 3.715-2.253 5.067-10.247 5.067h-1.577c-5.853 0-6.867-1.352-6.867-9.345v-5.18c8.783 0 9.459.788 9.459 6.644h2.139V55.07h-2.14c0 5.855-.675 6.643-9.458 6.643v-12.61h6.191c7.996 0 9.233 1.352 10.247 5.067l.564 2.138h1.8l-.786-10.583h-33.104v2.138c6.304 0 7.319 1.351 7.319 9.346v14.413c0 7.313-.861 9.155-5.832 9.418-4.725-.722-7.968-3.299-12.407-8.18l-5.18-5.629c6.982-1.24 10.698-5.63 10.698-10.585 0-6.191-5.292-10.92-15.2-10.92h-19.816v2.137c6.304 0 7.318 1.351 7.318 9.346v14.413c0 7.994-1.013 9.458-7.318 9.458v2.139h22.406v-2.14c-6.304 0-7.318-1.463-7.318-9.457V67.57h1.914l12.497 15.65h46.276l.676-10.583h-1.691Zm-59.673-8.558V49.104h4.615c5.067 0 7.32 3.49 7.32 7.544 0 3.941-2.253 7.43-7.32 7.43h-4.615Zm82.529 20.605c-4.504 0-8.445-2.364-10.134-3.829-.563.564-1.576 2.253-1.8 3.829h-2.14V69.146h2.252c.901 7.43 6.08 11.822 12.723 11.822 3.603 0 6.53-2.026 6.53-5.404 0-2.927-2.589-5.18-7.205-7.318l-6.418-3.04c-4.505-2.141-7.882-5.857-7.882-10.81 0-5.404 5.067-10.02 12.048-10.02 3.716 0 6.867 1.351 8.783 2.927.562-.45 1.125-1.69 1.463-3.042h2.14V57.55h-2.365c-.79-5.293-3.716-9.684-9.683-9.684-3.152 0-6.081 1.802-6.081 4.618 0 2.927 2.365 4.502 7.77 6.98l6.191 3.04c5.406 2.589 7.544 6.757 7.544 10.134 0 7.093-6.193 12.046-13.736 12.046Zm34.678 0c-4.504 0-8.446-2.364-10.133-3.829-.564.564-1.576 2.253-1.8 3.829h-2.14V69.146h2.251c.9 7.43 6.08 11.822 12.723 11.822 3.603 0 6.531-2.026 6.531-5.404 0-2.927-2.59-5.18-7.207-7.318l-6.418-3.04c-4.504-2.141-7.882-5.857-7.882-10.81 0-5.404 5.067-10.02 12.048-10.02 3.716 0 6.868 1.351 8.783 2.927.562-.45 1.125-1.69 1.462-3.042h2.14V57.55h-2.364c-.789-5.293-3.716-9.684-9.682-9.684-3.153 0-6.082 1.802-6.082 4.618 0 2.927 2.365 4.502 7.77 6.98l6.192 3.04c5.405 2.589 7.543 6.757 7.543 10.134 0 7.093-6.192 12.046-13.735 12.046Z"/>
  <path fill="#464342" d="M8.256 58.083c0 19.724 11.463 36.768 28.084 44.846L12.57 37.804a49.64 49.64 0 0 0-4.314 20.28Zm83.468-2.514c0-6.158-2.212-10.423-4.11-13.743-2.526-4.104-4.893-7.58-4.893-11.684 0-4.581 3.474-8.845 8.367-8.845.221 0 .43.028.646.04-8.865-8.122-20.676-13.08-33.649-13.08-17.408 0-32.723 8.931-41.633 22.46 1.17.034 2.271.059 3.207.059 5.212 0 13.28-.633 13.28-.633 2.686-.158 3.002 3.787.32 4.105 0 0-2.7.318-5.704.475l18.146 53.973 10.904-32.704-7.763-21.27c-2.683-.158-5.225-.476-5.225-.476-2.686-.157-2.37-4.263.314-4.104 0 0 8.23.632 13.126.632 5.21 0 13.28-.632 13.28-.632 2.687-.159 3.003 3.786.319 4.104 0 0-2.705.318-5.703.475L82.96 88.286l4.97-16.61c2.154-6.891 3.794-11.841 3.794-16.107Zm-32.765 6.873-14.95 43.443a49.827 49.827 0 0 0 14.076 2.03 49.776 49.776 0 0 0 16.547-2.825 4.376 4.376 0 0 1-.354-.686L58.959 62.442Zm42.849-28.265c.214 1.587.336 3.29.336 5.124 0 5.056-.945 10.74-3.79 17.847l-15.22 44.007c14.814-8.639 24.778-24.688 24.778-43.07a49.56 49.56 0 0 0-6.104-23.908ZM58.085 0C26.058 0 0 26.056 0 58.083c0 32.032 26.058 58.087 58.085 58.087s58.088-26.055 58.088-58.087C116.173 26.056 90.112 0 58.085 0Zm0 113.507c-30.558 0-55.422-24.863-55.422-55.424 0-30.558 24.863-55.42 55.422-55.42 30.558 0 55.42 24.862 55.42 55.42 0 30.561-24.862 55.424-55.42 55.424Z"/>
</svg>
